X: 25015
T: Maid That Tends The Goats, The
R: strathspey
M: 4/4
K: Aminor
E<E A<A c>E D2|EE ~c>d B>A Bd|
e<e d>e GA c2|d>B {B}e>d B>A A2:|
(g<e) ~e>d cd E2|c<c d<d g>e e>d|
eAcG E>D D2|E<E c>e B>A Bd|
e<e d>e G>A c2|d>B {B}e>d B>A A2||

